X:1
T:Mazurka
M:3/4
L:1/8
C: Adolf Sjöström
O: Jämjö, Blekinge
Q: 1/4=175
Z: Peter Svensson
R: Mazurka
K:G
D2 | G2 BG DG    | F2  AF  E2  | F2 AF   EF    | G2   BG   D2    |
     G2 BG DG    | F2  AF  E2  | F2 AF   EF    | G    z    G3 D ||
     G3 (A B)>(c | d2) .B2 .B2 | c2 A>(F E)>(F | G2)  B>(G D2)   |
     G3 (A B)>(c | d2) .B2 .B2 | c2 A>(F E)>(F | .G2) G2         |]

